Map-navigation-icons/i-layers.svg

<?xml version="1.0" encoding="UTF-8"?>
<svg width="24px" height="24px" viewBox="0 0 24 24" version="1.1" xmlns="http://www.w3.org/2000/svg" xmlns:xlink="http://www.w3.org/1999/xlink">
    <title>i-layers</title>
    <g id="Fleet-View-V_2" stroke="none" stroke-width="1" fill="none" fill-rule="evenodd">
        <g id="Icons-list" transform="translate(-483.000000, -539.000000)">
            <g id="i-layers" transform="translate(483.000000, 539.000000)">
                <rect id="ViewBox" x="0" y="0" width="24" height="24"></rect>
                <path d="M11.5,17 C11.3833044,17 11.2684508,16.9721109 11.1658008,16.9189189 L2,12.1891892 L2.6683984,11 L11.5,15.5567568 L20.3316016,11 L21,12.1891892 L11.8341992,16.9189189 C11.7315492,16.9721109 11.6166956,17 11.5,17 Z" id="Path" fill="#000000" fill-rule="nonzero"></path>
                <path d="M11.5,22 C11.3833044,22 11.2684508,21.9721109 11.1658008,21.9189189 L2,17.1891892 L2.6683984,16 L11.5,20.5567568 L20.3316016,16 L21,17.1891892 L11.8341992,21.9189189 C11.7315492,21.9721109 11.6166956,22 11.5,22 Z" id="Path" fill="#000000" fill-rule="nonzero"></path>
                <path d="M12,13 C11.8817695,13 11.7654052,12.9716224 11.661405,12.9174987 L2.37504488,8.10492265 C2.14401224,7.98490708 2,7.75259146 2,7.49991309 C2,7.24723473 2.14401224,7.01491911 2.37504488,6.89490354 L11.661405,2.08232749 C11.8727284,1.9725575 12.1272716,1.9725575 12.338595,2.08232749 L21.6249551,6.89490354 C21.8559878,7.01491911 22,7.24723473 22,7.49991309 C22,7.75259146 21.8559878,7.98490708 21.6249551,8.10492265 L12.338595,12.9174987 C12.2345948,12.9716224 12.1182305,13 12,13 Z M4,7 L12,11 L20,7 L12,3 L4,7 Z" id="Shape" fill="#000000" fill-rule="nonzero"></path>
            </g>
        </g>
    </g>
</svg>

<svg width="24" height="24" xmlns="http://www.w3.org/2000/svg">
  <g fill="none" fill-rule="evenodd">
    <path d="M0 0h24v24H0z"/>
    <path d="M11.5 17a.727.727 0 0 1-.334-.081L2 12.189 2.668 11l8.832 4.557L20.332 11 21 12.19l-9.166 4.729A.727.727 0 0 1 11.5 17Z" fill="#000" fill-rule="nonzero"/>
    <path d="M11.5 22a.727.727 0 0 1-.334-.081L2 17.189 2.668 16l8.832 4.557L20.332 16 21 17.19l-9.166 4.729A.727.727 0 0 1 11.5 22ZM12 13a.734.734 0 0 1-.339-.083L2.375 8.105A.684.684 0 0 1 2 7.5c0-.253.144-.485.375-.605l9.286-4.813a.737.737 0 0 1 .678 0l9.286 4.813c.231.12.375.352.375.605a.684.684 0 0 1-.375.605l-9.286 4.812A.734.734 0 0 1 12 13ZM4 7l8 4 8-4-8-4-8 4Z" fill="#000" fill-rule="nonzero"/>
  </g>
</svg>
